Images/Icon/UE5.svg

<svg xmlns="http://www.w3.org/2000/svg"  viewBox="0 0 50 50" width="50px" height="50px"><path d="M 25 2 C 12.308594 2 2 12.308594 2 25 C 2 37.691406 12.308594 48 25 48 C 37.691406 48 48 37.691406 48 25 C 48 12.308594 37.691406 2 25 2 Z M 25 4 C 36.609375 4 46 13.390625 46 25 C 46 36.609375 36.609375 46 25 46 C 13.390625 46 4 36.609375 4 25 C 4 13.390625 13.390625 4 25 4 Z M 23.621094 10.5 C 15.773438 12.367188 6.65625 21.90625 7.542969 29.125 C 11.8125 21.59375 14.703125 20.570313 15.488281 20.570313 C 16.277344 20.570313 16.703125 20.996094 16.703125 21.90625 L 16.703125 33.128906 C 16.703125 34.523438 15.355469 34.355469 14.460938 34.21875 C 17.773438 39.160156 25.5 39.5 25.5 39.5 L 28.960938 35.738281 L 32.296875 38.589844 C 37.378906 35.300781 40.734375 29.726563 40.734375 28.882813 C 38.21875 31.65625 36.058594 32.160156 35.574219 32.160156 C 35.089844 32.160156 34.300781 32.101563 34.300781 31.433594 L 34.300781 18.121094 C 34.300781 16.964844 37.480469 13.171875 38.484375 11.894531 C 31.871094 13.628906 29.324219 16.933594 29.324219 16.933594 C 29.324219 16.933594 28.433594 16.265625 26.472656 16.265625 C 27.207031 16.890625 28.234375 18.023438 28.234375 19.359375 L 28.234375 31.550781 C 28.234375 31.550781 26.046875 33.128906 24.773438 33.128906 C 23.5 33.128906 22.589844 32.585938 22.589844 31.613281 L 22.589844 17.050781 C 22.589844 17.050781 20.769531 18.328125 20.769531 14.5625 C 20.769531 12.683594 23.621094 10.5 23.621094 10.5 Z"/></svg>

<?xml version="1.0" encoding="UTF-8"?>
<svg xmlns="http://www.w3.org/2000/svg" width="50px" height="50px"><path d="M25 2C12.31 2 2 12.31 2 25s10.31 23 23 23 23-10.31 23-23S37.69 2 25 2m0 2c11.61 0 21 9.39 21 21s-9.39 21-21 21S4 36.61 4 25 13.39 4 25 4m-1.38 6.5C15.77 12.37 6.66 21.91 7.54 29.13c4.27-7.54 7.16-8.56 7.95-8.56q1.2-.01 1.21 1.34v11.22c0 1.39-1.34 1.23-2.24 1.09 3.31 4.94 11.04 5.28 11.04 5.28l3.46-3.76 3.34 2.85c5.08-3.29 8.43-8.86 8.43-9.71-2.51 2.78-4.67 3.28-5.16 3.28-.48 0-1.27-.06-1.27-.73V18.12c0-1.16 3.18-4.95 4.18-6.23-6.61 1.74-9.16 5.04-9.16 5.04s-.89-.66-2.85-.66c.74.62 1.76 1.75 1.76 3.09v12.19s-2.18 1.58-3.46 1.58-2.18-.54-2.18-1.52V17.05s-1.82 1.28-1.82-2.49c0-1.88 2.85-4.06 2.85-4.06"/></svg>
